X: 2372
T: Kiss me fast my Minnie's coming.  a Jig.
%R: jig
B: Niel Gow & Sons "Complete Repository" v.2 p.37 #2
Z: 2021 John Chambers <jc:trillian.mit.edu>
M: 6/8
L: 1/8
K: D
% - - - - - - - - - -
V: 1 staves=2
|:\
D2A F2A | E2=c GEC  | D2A   F2A | D2A AFD |\
GBG FAF | TE2F GE=C | Td>cB AFd | D2A AFD :|
|:\
d2g (f/g/a).f | e2f ge=c | d2g (f/g/a).f | d2a- afd |\
gbg faf | e2f ge=c | ~dcB AFd | D2A- AFD :|
% - - - - - - - - - -
V: 2 clef=bass middle=d
|: d3  d3  | =c3  c3  | d3  d3  | d3  d3  |\
   e3  d3  | =c3  c3  | d3  A3  | d3  d3 :|
|: d'3 d'3 | =c'3 c'3 | d'3 d'3 | d'3 d'3 |\
   g3  d3  | =c3  c3  | d3  A3  | d3  d3 :|


